!!!SOCIAL_FUNCTION:	songs concerning the sacred stones
!!!PDT:	1918

Specific Region: Dakotas, Minnesota, Montana, Nebraska
!!!REG: Dakotas and Montana
!!!LING_GROUP: Siouan
!!!LANG: Tone
!!!OTL@ENG: In a Sacred Manner I Live
!!!ONM: No. 77
**kern
*Imale
*clefF4
*k[b-e-a-d-g-]
*M2/4
*>[A,B,B]
*>norep[A,B]
*>A
*MM100
4f
4f
=2
(8f
8d-)
8d-
8d-
=3
4B-
4B-
*>B
=4!|:
4d-
4f
=5
(8f
8d-)
8d-
8f
=6||
*M3/4
4B-
4B-
8B-
8B-
=7
2B-
8A-
8A-
=8
8F
[8F
8F]
[8F
4F]
=9||
*M2/4
4F
4d-
=10
(8d-
8B-)
8B-
8B-
=11
4A-
4A-
=12
4F
4B-
=13||
*M3/4
(8B-
8A-)
8A-
8A-
4F
=14||
*M2/4
4.F
8F
=15
[2F
=16
2F]
==:|!
*-
!!!CNT: Native American -- Sioux
!!!MRD: 1911/07//-1914///
!!!OCL: Frances Densmore
!!!YOR1: Teton Sioux Music, Bulletin 61,
!!!YOR2: Bureau of American Ethnology, Smithsonian Institution
!!!PPR: Government Printing Office
!!!PPP: Washington, D.C.
!!!PDT: 1918///
!!!ENC: Craig Stuart Sapp
!!!END: 2002/03/25/
!!!EEV: 2002/03/31/
!!!AGN: Song of Personal Dreams/Song Concerning the Sacred Stones
!!!MPN@@SIO: Mato'wangbli'
!!!MPN@ENG: Bear Eagle
!!!TXO: Teton Sioux
!!!MLC: Standing Rock Reservation, South Dakota, United States of America
!!!ARL: 45.9/-100.7#
!!!catalog: Catalogue No. 632
!!!PPG: 236
!!!EFL: 77/245
!!!VTS: 828536347
